X:393
T:Salty Dog
C:Traditional
N:
R:bluegrass
L:1/8
Q:1/4=250
M:4/4
K:A
z8 | z2 EF GA Be | "A"cA ce cA ce | "Gb"dA de cA ce | "B"Bc BG FG Bc | ^df gf eb f=g | 
"E"gf eg fe df | ea fe =cB AE | "A"FA zE FA EF | A8 | "A"=c'^c'2=c' ^c'2 a2 | 
"Gb"ga2g a2 f2 | "B"Bc BG FG Bc | ^df gb z4 | "E"=g^g b3g fg | ef ec BA GB | "A"A4 =c^c ef | 
a8 | 


